brandFactory_export/1.Light/Documento_Archivo MP3_1Light.svg

<?xml version="1.0" encoding="UTF-8"?>
<svg width="24px" height="24px" viewBox="0 0 24 24" version="1.1" xmlns="http://www.w3.org/2000/svg" xmlns:xlink="http://www.w3.org/1999/xlink">
    <title>1.Light/Documento_Archivo MP3_1Light</title>
    <g id="Symbols" stroke="none" stroke-width="1" fill="none" fill-rule="evenodd">
        <g id="1.Light/Documento_Archivo-MP3_1Light" fill="#5CB615" fill-rule="nonzero">
            <path d="M16.3092437,0.00672268908 C16.5243697,0.00672268908 16.7294118,0.0907563025 16.887395,0.238655462 L23.3781513,6.5210084 C23.4890756,6.62521008 23.5495798,6.76302521 23.5831933,6.90756303 C23.610084,6.96806723 23.6235294,7.03193277 23.6235294,7.10252101 L23.6235294,22.1781513 C23.6235294,22.9613445 22.9478992,23.6235294 22.1478992,23.6235294 L7.22352941,23.6235294 C6.43697479,23.6235294 5.74789916,22.9478992 5.74789916,22.1781513 L5.79159664,18.5344538 L2.72268908,18.5344538 C1.22352941,18.5344538 0.00336134409,17.3142857 0.00336134409,15.8117647 L0.00336134409,10.7966387 C0.00336134409,9.29411765 1.22352941,8.07394958 2.72268908,8.07394958 L5.74789916,8.07394958 L5.74789916,1.45210084 C5.74789916,0.695798319 6.45042017,0.00672268908 7.22352941,0.00672268908 L16.3092437,0.00672268908 Z M15.4789916,0.994957983 L7.22016807,0.994957983 C6.99831933,0.994957983 6.73277311,1.24033613 6.73277311,1.4487395 L6.73277311,8.07058824 L14.7798319,8.07058824 C16.2789916,8.07058824 17.4991597,9.2907563 17.4991597,10.7932773 L17.4991597,15.8084034 C17.4991597,17.3109244 16.2789916,18.5310924 14.7798319,18.5310924 L6.77983193,18.5310924 L6.73613445,22.1815126 C6.73613445,22.4 6.9815126,22.6285714 7.22352941,22.6285714 L22.1478992,22.6285714 L22.1478992,22.6319328 C22.3966387,22.6319328 22.6319328,22.410084 22.6319328,22.1781513 L22.6319328,7.91932773 L19.5529412,7.91932773 C18.3764706,7.91932773 17.3613445,7.5394958 16.6218487,6.82016807 C15.8756303,6.09747899 15.4789916,5.10588235 15.4789916,3.95966387 L15.4789916,0.994957983 Z M14.7831933,9.06218487 L2.71932773,9.06218487 C1.76806723,9.06218487 0.991596638,9.83865546 0.991596638,10.7932773 L0.991596638,15.8084034 C0.991596638,16.7630252 1.76470588,17.5394958 2.71932773,17.5394958 L14.7831933,17.5394958 C15.7344538,17.5394958 16.5109244,16.7630252 16.5109244,15.8084034 L16.5109244,10.7932773 C16.5109244,9.83865546 15.7378151,9.06218487 14.7831933,9.06218487 Z M13.2705882,11.0554622 C13.8285714,11.0554622 14.302521,11.1865546 14.5747899,11.4588235 C14.7630252,11.6470588 14.8806723,11.9058824 14.8806723,12.2756303 C14.8806723,12.7361345 14.6789916,13.0588235 14.292437,13.2537815 C14.7596639,13.4218487 15.0386555,13.7714286 15.0386555,14.3495798 C15.0386555,14.692437 14.9344538,14.9915966 14.7260504,15.2067227 C14.4336134,15.512605 13.9596639,15.6672269 13.287395,15.6672269 C12.9008403,15.6638655 12.5109244,15.6235294 12.2151261,15.5596639 L12.2151261,14.8605042 C12.4739496,14.907563 12.7798319,14.9378151 13.102521,14.9378151 C13.4655462,14.9378151 13.6806723,14.8907563 13.8352941,14.789916 C13.989916,14.6857143 14.0739496,14.5176471 14.0739496,14.2789916 C14.0739496,14.0470588 13.989916,13.8890756 13.8521008,13.7915966 C13.6907563,13.6739496 13.4420168,13.6369748 12.9882353,13.6369748 L12.8638655,13.6369748 L12.8638655,12.9882353 L13.0184874,12.9882353 C13.4252101,12.9882353 13.6336134,12.9378151 13.7915966,12.8 C13.8957983,12.7092437 13.9663866,12.5613445 13.9663866,12.3462185 C13.9663866,12.1781513 13.9193277,12.0336134 13.8184874,11.9428571 C13.687395,11.8252101 13.4689076,11.7747899 13.1193277,11.7747899 C12.8336134,11.7747899 12.5109244,11.8016807 12.2521008,11.8386555 L12.2521008,11.1529412 C12.5512605,11.0890756 12.9277311,11.0554622 13.2705882,11.0554622 Z M3.51932773,11.1394958 L4.9210084,13.6168067 L6.36638655,11.1394958 L7.14285714,11.1394958 L7.14285714,15.5731092 L6.21848739,15.5731092 L6.21848739,13.0184874 L5.29747899,14.5613445 L4.5210084,14.5613445 L3.57310924,12.9915966 L3.57310924,15.5731092 L2.72268908,15.5731092 L2.72268908,11.1394958 L3.51932773,11.1394958 Z M9.6302521,11.1394958 C10.3226891,11.1394958 10.7630252,11.2369748 11.0487395,11.502521 C11.287395,11.7243697 11.405042,12.0672269 11.405042,12.5411765 C11.405042,13.0151261 11.2941176,13.3714286 11.0756303,13.6168067 C10.8168067,13.9092437 10.4134454,14.0436975 9.83193277,14.0436975 L9.11932773,14.0436975 L9.11932773,15.5731092 L8.10756302,15.5731092 L8.10756302,11.1394958 L9.6302521,11.1394958 Z M9.59327731,11.8722689 L9.11932773,11.8722689 L9.11932773,13.287395 L9.62016807,13.287395 L9.62016807,13.2840336 C9.94285714,13.2840336 10.0806723,13.2369748 10.2084034,13.1159664 C10.3260504,12.9983193 10.3831933,12.810084 10.3831933,12.5512605 C10.3831933,12.312605 10.3327731,12.1378151 10.2151261,12.0268908 C10.0907563,11.9159664 9.90252101,11.8722689 9.59327731,11.8722689 Z M16.4705882,1.21008403 L16.4705882,3.95630252 C16.4705882,4.8302521 16.7596639,5.57310924 17.3109244,6.10420168 C17.8655462,6.63865546 18.6386555,6.92436975 19.5529412,6.92436975 L22.3731092,6.92436975 L16.4705882,1.21008403 Z" id="Documento_Archivo-MP3_1Light"></path>
        </g>
    </g>
</svg>

<svg width="24" height="24" viewBox="0 0 24 24" xmlns="http://www.w3.org/2000/svg"><path d="M16.31.007c.214 0 .42.084.577.232l6.491 6.282c.111.104.172.242.205.387a.47.47 0 01.04.195v15.075c0 .783-.675 1.446-1.475 1.446H7.224c-.787 0-1.476-.676-1.476-1.446l.044-3.644h-3.07c-1.498 0-2.719-1.22-2.719-2.722v-5.015a2.723 2.723 0 012.72-2.723h3.025V1.452c0-.756.702-1.445 1.476-1.445h9.085zm-.831.988H7.22c-.222 0-.487.245-.487.454V8.07h8.047c1.499 0 2.72 1.22 2.72 2.722v5.015a2.723 2.723 0 01-2.72 2.723h-8l-.044 3.65c0 .219.246.448.488.448h14.924v.003c.249 0 .484-.222.484-.454V7.92h-3.08c-1.176 0-2.19-.38-2.93-1.099-.746-.723-1.143-1.714-1.143-2.86V.995zm-.696 8.067H2.72c-.95 0-1.727.777-1.727 1.731v5.015a1.73 1.73 0 001.727 1.731h12.064c.951 0 1.728-.776 1.728-1.73v-5.016a1.73 1.73 0 00-1.728-1.73zm-1.512 1.993c.558 0 1.032.132 1.304.404.188.188.306.447.306.817 0 .46-.202.783-.589.978.468.168.747.517.747 1.096 0 .342-.105.642-.313.857-.292.306-.766.46-1.439.46a5.583 5.583 0 01-1.072-.107v-.7c.259.048.565.078.888.078.363 0 .578-.047.732-.148.155-.104.239-.272.239-.511 0-.232-.084-.39-.222-.487-.161-.118-.41-.155-.864-.155h-.124v-.649h.154c.407 0 .616-.05.774-.188.104-.09.174-.239.174-.454 0-.168-.047-.312-.148-.403-.13-.118-.35-.168-.699-.168-.285 0-.608.027-.867.064v-.686a5.16 5.16 0 011.019-.098zm-9.752.084l1.402 2.478 1.445-2.478h.777v4.434h-.925v-2.555l-.92 1.543H4.52l-.948-1.57v2.582h-.85V11.14h.796zm6.111 0c.693 0 1.133.098 1.419.364.238.221.356.564.356 1.038 0 .474-.11.83-.33 1.076-.258.292-.662.427-1.243.427h-.713v1.53H8.108v-4.435H9.63zm-.037.733H9.12v1.415h.501v-.003c.323 0 .46-.047.588-.168.118-.118.175-.306.175-.565 0-.238-.05-.413-.168-.524-.124-.111-.312-.155-.622-.155zM16.471 1.21v2.746c0 .874.289 1.617.84 2.148.555.535 1.328.82 2.242.82h2.82L16.471 1.21z" fill="#5CB615" fill-rule="nonzero"/></svg>
